src/icons/svg/home.svg

<svg class="icon" viewBox="0 0 1024 1024" xmlns="http://www.w3.org/2000/svg" width="128" height="128"><defs><style/></defs><path d="M992 441.6L601.6 38.4C576 12.8 544 0 512 0c-32 0-64 12.8-89.6 38.4L32 441.6c-38.4 44.8-32 76.8-25.6 96 0 6.4 19.2 38.4 64 38.4H128v313.6c0 70.4 51.2 134.4 121.6 134.4H416V697.6c0-38.4-6.4-57.6 32-57.6h128c38.4 0 32 19.2 32 57.6V1024h166.4c70.4 0 121.6-64 121.6-134.4V576h57.6c44.8 0 64-32 64-38.4 6.4-19.2 12.8-51.2-25.6-96zM953.6 512H832v377.6c0 38.4-25.6 70.4-57.6 70.4H672V697.6c0-70.4-25.6-121.6-96-121.6H448c-70.4 0-96 51.2-96 121.6V960H249.6c-32 0-57.6-38.4-57.6-70.4V512H70.4v-6.4c0-6.4 6.4-12.8 12.8-19.2L473.6 83.2C480 70.4 499.2 64 512 64c12.8 0 32 6.4 44.8 19.2l390.4 403.2c0 6.4 6.4 19.2 6.4 25.6 0-6.4 0 0 0 0z"/></svg>

<?xml version="1.0" standalone="no"?><!DOCTYPE svg PUBLIC "-//W3C//DTD SVG 1.1//EN" "http://www.w3.org/Graphics/SVG/1.1/DTD/svg11.dtd"><svg t="1557882209499" class="icon" style="" viewBox="0 0 1024 1024" version="1.1" xmlns="http://www.w3.org/2000/svg" p-id="6033" xmlns:xlink="http://www.w3.org/1999/xlink" width="128" height="128"><defs><style type="text/css"></style></defs><path d="M992 441.6 601.6 38.4C576 12.8 544 0 512 0 480 0 448 12.8 422.4 38.4L32 441.6C-6.4 486.4 0 518.4 6.4 537.6 6.4 544 25.6 576 70.4 576L128 576l0 313.6C128 960 179.2 1024 249.6 1024l64 0 102.4 0 0-70.4 0-256C416 659.2 409.6 640 448 640l64 0 64 0c38.4 0 32 19.2 32 57.6l0 256L608 1024l102.4 0 64 0c70.4 0 121.6-64 121.6-134.4L896 576l57.6 0c44.8 0 64-32 64-38.4C1024 518.4 1030.4 486.4 992 441.6zM953.6 512l-51.2 0-32 0L832 512l0 377.6c0 38.4-25.6 70.4-57.6 70.4l-102.4 0 0-262.4C672 627.2 646.4 576 576 576L512 576 448 576c-70.4 0-96 51.2-96 121.6L352 960 249.6 960C217.6 960 192 921.6 192 889.6L192 512 153.6 512 121.6 512 70.4 512c0 0 0-6.4 0-6.4 0-6.4 6.4-12.8 12.8-19.2l390.4-403.2C480 70.4 499.2 64 512 64c12.8 0 32 6.4 44.8 19.2l390.4 403.2C947.2 492.8 953.6 505.6 953.6 512 953.6 505.6 953.6 512 953.6 512z" p-id="6034" fill="#e6e6e6"></path></svg>
